!!!!SEGMENT: pl-wtm--r-1227--006_lodwigowski-edward-stefan-mine-ly-slodkie-momenta.krn
!!!id: 18xx:1946
!!!COM: Łodwigowski, Edward Stefan
!!!OTL: Minęły słodkie momenta
!!!PDT:
!!!SMS-siglum: PL-Wtm
!!!SMS-shelfmark: R 1227
!!!NIFC-rismID: 1001084039
!!!URL-scan: http://repozytorium.nifc.pl/skany/pl-wtm-nut--r1226-1227
!!!ONB-nifc: UWAGA: No. 78
!!!OMD: No 78. Andantino
!!!SMS-variant:
!!!SMS-altvar:
**kern	**fing	**kern	**fing	**dynam
*part1	*	*part1	*	*part1
*staff2	*	*staff1	*	*
*I"Fortepian	*	*I"Fortepian	*	*
*clefF4	*	*clefG2	*	*
*k[f#]	*	*k[f#]	*	*
*M3/4	*	*M3/4	*	*
*>[A,A]	*>[A,A]	*>[A,A]	*>[A,A]	*>[A,A]
=1	=1	=1	=1	=1
*all\right	*	*all\right	*	*
*>A	*>A	*>A	*>A	*>A
*	*below	*	*	*
!	!	!LO:TX:a:i:t=Minęły słodkie momenta. P.L.P.	!	!
4GG/	5	(8bL 8g\	1 3	p
.	.	8dd 8b\	3 5	.
!	!	!LO:TX:a:t=P:problem:łuk nad palcowaniem	!	!
!	!	!LO:TX:b:t=dol&colon;	!	!
4G\	.	8cc#X 8a#X\	2 4	.
.	.	8ddJ 8b\	2 4	.
4G\	.	8.eeL 8.ccn\	.	.
.	.	16ddJk 16b\)	.	.
=2	=2	=2	=2	=2
(8GG\L	.	8.ddL 8.b\	1 3	.
8G\	.	.	.	.
.	.	16ggJk 16b\	.	.
*	*above	*2\right	*	*
8B\	2	2gg 2b\	.	.
8G\	1	.	.	.
8D\	2	.	.	.
8BB\J)	4	.	.	.
=3	=3	=3	=3	=3
4GG/	.	(8bL 8g\	1 3	.
.	.	8dd 8b\	3 5	.
4G\	.	8cc#X 8a#X\	2 4	.
.	.	8ddJ 8b\	2 4	.
4G\	.	8.eeL 8.ccn\	.	.
.	.	16bJk 16g\	1 2	.
=4	=4	=4	=4	=4
4D\	.	8.ddL 8.b\	.	.
.	.	16ccJk 16a\)	.	.
8r	.	4cc 4a\	.	.
8d\L	.	.	.	.
8A\	.	4r	.	.
8F#\J	.	.	.	.
!!LO:PB:g=original
=5	=5	=5	=5	=5
4D\	.	(8aL 8f#/	2 4	.
.	.	8cc 8a/	3 5	.
4d\	.	8b 8g#X/	2 4	.
.	.	8ccJ 8a/)	1 3	.
4d\	.	(8.ddL 8.b\	2 4	.
.	.	16ccJk 16a\)	.	.
=6	=6	=6	=6	=6
*	*	*	*^	*
(8D\L	.	8.ccL 8.a\	1 2	.	<
8d\	.	.	.	.	.
.	.	16aaJk 16cc\	5	2	[
8f#\	2	([4.aa 4.cc^\	.	1	.
8d\	1	.	.	.	.
8A\	2	.	.	.	.
8d\J)	1	8aa] 8b\	.	.	.
=7	=7	=7	=7	=7	=7
4D\	.	8ff#L 8a\	4	.	.
.	.	8ee 8g\	5	.	.
4d\	.	8dd 8f#\	5	2	.
.	.	8aJ 8f#\	2	.	>
4d\	.	8.ddL 8.f#\	5	.	.
.	.	16ccJk 16a\)	5	3	]
*	*	*	*v	*v	*
=8	=8	=8	=8	=8
[4d [4G\	.	8.ccL 8.a\	2 4	.
.	.	16bJk 16g\	.	.
8d]L 8G\]	.	4b 4g\	.	.
8G\	1	.	.	.
8D\	2	4r	.	.
8BB\J	4	.	.	.
=9	=9	=9	=9	=9
4GG/	.	8bL 8d'/	.	.
.	.	8bJ 8d'/	.	.
4G\	.	8aL 8c/	.	.
.	.	8g 8B/	.	.
4G\	.	8f# 8A/	4	.
.	.	8gJ 8B/	.	.
=10	=10	=10	=10	=10
8DD/L	.	4a 4f# 4c'/	.	.
(8D/	.	.	.	.
*	*below	*	*	*
8E/	2	2a 2f# 2c^>/	.	.
8D/	1	.	.	.
8AA/	2	.	.	.
8FF#/J)	3	.	.	.
!!LO:PB:g=original
=11	=11	=11	=11	=11
4DD/	.	8aL 8f# 8c'/	.	.
.	.	8a 8f#/	2 4	.
4D\	.	8g#X 8e#X/	3	.
.	.	8aJ 8f#/	.	.
4D\	.	8.ddL 8.f#/	5	.
.	.	16ccJk 16a/	5	.
=12	=12	=12	=12	=12
(8GG\L	.	8.a#XL 8.f#/	2 4	.
*	*above	*	*	*
8G\	1	.	.	.
.	.	16bJk 16g/	.	.
8A\	2	2b 2g/	.	.
8G\	1	.	.	.
8D\	2	.	.	.
8BB\J)	4	.	.	.
=13	=13	=13	=13	=13
*	*	*	*^	*
4GG/	.	8bL 8g'/	3 5	.	.
.	.	8b 8g'/	.	.	.
4G\	.	8b 8g'/	.	.	.
.	.	8b 8g'/	.	.	.
!	!	!	!	!	!LO:HP:t=cres
4G\	.	(8a 8f#/	4	2	<
.	.	8bJ 8fn/)	4	1	.
*	*	*	*v	*v	*
=14	=14	=14	=14	=14
*	*	*^	*	*
[4C\	.	(8ddL 8fn/	4ryy	.	.
.	.	8ccJ 8e/)	.	4	.
8C\L]	.	4.cc/	[2e\	4	.
8E\	4	.	.	.	.
8A\	2	.	.	.	.
8B\J	1	8b/	.	.	.
=15	=15	=15	=15	=15	=15
4c\	2	(<8a/L	4e\]	.	.
.	.	8ee/J)	.	.	.
4d\	1	(<4.dd^/	2a 2f#\	5	.
[4D\	.	.	.	.	>
.	.	8cc/)	.	.	]]
*	*	*v	*v	*	*
=16	=16	=16	=16	=16
4c 4A 4D\]	.	(8e/L	1	.
.	.	8f#/J)	.	.
4c 4F# 4D^\	.	(4a^/	.	.
8B 8G'\	.	8g'/)	.	.
8r	.	8r	.	.
=:|!	=:|!	=:|!	=:|!	=:|!
*-	*-	*-	*-	*-
!!!system-decoration: {s1,s2}
!!!RDF**kern: > = above
!!!RDF**kern: < = below
!!!ENC: Andrzej Gręziak
!!!END: 2021-04-17
!!!ENC: Marta Lawrence
!!!ENC: 2021-05-02
